src/assets/svgs/cutouts/monitorSide.svg

<svg viewBox="0 0 123.62 95.34">
  <path class="blackDark" d="M102.37,52.31c-.07,6.89-21.78,42.51-26.8,42.51l21.67,.02c5.02,0,25.81-34.7,25.88-41.59l-20.74-.94Z"/>
  <path class="blackMedium" d="M90.22,2.4c5.19,1.67,32.97,44.1,32.9,50.83l-20.74-.92L68.55,.55l21.67,1.85Z"/>
  <path class="blackMediumLight" d="M94.18,9.21c3.36,1.63,23.41,32.27,23.75,36.69l-15.9-.67c-1.72-5.23-19.27-32.07-24.23-37.36l16.38,1.33Z"/>
  <g class="blackMediumDark">
    <path d="M100.99,88.75c2.11-.57,17.46-24.43,18.47-29.68l-16.65-.67c-1.61,4.75-15.39,28.02-18.57,30.34h16.76Z"/>
    <path d="M68.55,.55c5.19,1.67,33.9,45.02,33.83,51.76s-21.78,42.51-26.8,42.51H10.32c-3.74,0-11.17-17.6-9.61-24.77C2.82,60.36,61.98-1.56,68.55,.55Z"/>
  </g>
  <g class="blackDark">
    <path d="M46.29,56.41h18.94c4.31,0,4.31-7.08,0-7.08h-18.94c-4.47,0-4.47,7.08,0,7.08Z"/>
    <path d="M46.29,68.94h18.94c4.31,0,4.31-7.08,0-7.08h-18.94c-4.47,0-4.47,7.08,0,7.08Z"/>
  </g>
</svg>

<svg viewBox="0 0 123.62 95.34">
  <path class="monitorDark" d="M97.24,94.84c5,0,25.81-34.7,25.88-41.59l-20.75-.94L75.57,94.82Z"/>
  <path class="panelDark" d="M101,88.75c2.1-.57,17.46-24.43,18.46-29.68L102.8,58.4c-1.61,4.75-15.39,28-18.57,30.34Z"/>
  <path class="monitorLight" d="M90.22,2.4c5.18,1.67,33,44.1,32.9,50.83l-20.75-.92L68.55.55Z"/>
  <path class="panelLight" d="M94.18,9.21c3.36,1.64,23.41,32.28,23.75,36.7L102,45.24C100.32,40,82.77,13.17,77.8,7.88Z"/>
  <path class="monitorMedium" d="M68.55.55c5.19,1.67,33.89,45,33.82,51.76S80.59,94.82,75.57,94.82H10.32C6.58,94.82-.84,77.22.71,70.05,2.82,60.36,62-1.56,68.55.55Z"/>
  <g class="panelMedium">
    <path d="M46.29,56.41H65.22c4.31,0,4.31-7.08,0-7.08H46.29C41.81,49.33,41.81,56.41,46.29,56.41Z"/>
    <path d="M46.29,68.94H65.22c4.31,0,4.31-7.08,0-7.08H46.29C41.81,61.86,41.81,68.94,46.29,68.94Z"/>
  </g>
</svg>
